actions/scalable/tools-report-bug.svg

<svg height="22" viewBox="0 0 22 22" width="22" xmlns="http://www.w3.org/2000/svg" xmlns:sodipodi="http://sodipodi.sourceforge.net/DTD/sodipodi-0.dtd" xmlns:inkscape="http://www.inkscape.org/namespaces/inkscape">
 <path d="m3 3v16h1 15v-1-15h-1-14-1zm1 1h14v14h-14v-14zm1 1v1h1v-1h-1zm1 1v2h2v-2h-2zm2 0h1v-1h-1v1zm0 2v1h1v-1h-1zm-2 0h-1v1h1v-1zm7-3v1h1v-1h-1zm1 1v2h2v-2h-2zm2 0h1v-1h-1v1zm0 2v1h1v-1h-1zm-2 0h-1v1h1v-1zm-5 3v2h4v-2h-4zm4 2v2h2v-2h-2zm2 2v2h2v-2h-2zm-6-2h-2v2h2v-2zm-2 2h-2v2h2v-2z" fill="#4d4d4d" transform="matrix(1 0 0 1 0 0)"/>
</svg>

<?xml version="1.0" encoding="UTF-8" standalone="no"?>
<!-- Created with Inkscape (http://www.inkscape.org/) -->

<svg
   xmlns:dc="http://purl.org/dc/elements/1.1/"
   xmlns:cc="http://creativecommons.org/ns#"
   xmlns:rdf="http://www.w3.org/1999/02/22-rdf-syntax-ns#"
   xmlns:svg="http://www.w3.org/2000/svg"
   xmlns="http://www.w3.org/2000/svg"
   xmlns:sodipodi="http://sodipodi.sourceforge.net/DTD/sodipodi-0.dtd"
   xmlns:inkscape="http://www.inkscape.org/namespaces/inkscape"
   width="22"
   height="22"
   id="svg2"
   version="1.1"
   inkscape:version="0.48+devel r"
   viewBox="0 0 22 22"
   sodipodi:docname="tools-report-bug.svg">
  <defs
     id="defs4" />
  <sodipodi:namedview
     id="base"
     pagecolor="#ffffff"
     bordercolor="#666666"
     borderopacity="1.0"
     inkscape:pageopacity="0.0"
     inkscape:pageshadow="2"
     inkscape:zoom="22.4"
     inkscape:cx="15.660962"
     inkscape:cy="10.475372"
     inkscape:document-units="px"
     inkscape:current-layer="layer1"
     showgrid="true"
     inkscape:showpageshadow="false"
     units="px"
     inkscape:window-width="1366"
     inkscape:window-height="718"
     inkscape:window-x="-2"
     inkscape:window-y="23"
     inkscape:window-maximized="1">
    <inkscape:grid
       type="xygrid"
       id="grid4101" />
    <sodipodi:guide
       position="2,20.000017"
       orientation="18,0"
       id="guide4107" />
    <sodipodi:guide
       position="2,2.0000174"
       orientation="0,18"
       id="guide4109" />
    <sodipodi:guide
       position="20,2.0000174"
       orientation="-18,0"
       id="guide4111" />
    <sodipodi:guide
       position="20,20.000017"
       orientation="0,-18"
       id="guide4113" />
    <sodipodi:guide
       position="3,19.000017"
       orientation="16,0"
       id="guide4115" />
    <sodipodi:guide
       position="3,3.0000174"
       orientation="0,16"
       id="guide4117" />
    <sodipodi:guide
       position="19,3.0000174"
       orientation="-16,0"
       id="guide4119" />
    <sodipodi:guide
       position="19,19.000017"
       orientation="0,-16"
       id="guide4121" />
  </sodipodi:namedview>
  <metadata
     id="metadata7">
    <rdf:RDF>
      <cc:Work
         rdf:about="">
        <dc:format>image/svg+xml</dc:format>
        <dc:type
           rdf:resource="http://purl.org/dc/dcmitype/StillImage" />
        <dc:title></dc:title>
      </cc:Work>
    </rdf:RDF>
  </metadata>
  <g
     inkscape:label="Capa 1"
     inkscape:groupmode="layer"
     id="layer1"
     transform="translate(0,-1030.3622)">
    <path
       style="opacity:1;fill:#666666;fill-opacity:1;stroke:none"
       d="M 3 3 L 3 19 L 4 19 L 19 19 L 19 18 L 19 3 L 18 3 L 4 3 L 3 3 z M 4 4 L 18 4 L 18 18 L 4 18 L 4 4 z M 5 5 L 5 6 L 6 6 L 6 5 L 5 5 z M 6 6 L 6 8 L 8 8 L 8 6 L 6 6 z M 8 6 L 9 6 L 9 5 L 8 5 L 8 6 z M 8 8 L 8 9 L 9 9 L 9 8 L 8 8 z M 6 8 L 5 8 L 5 9 L 6 9 L 6 8 z M 13 5 L 13 6 L 14 6 L 14 5 L 13 5 z M 14 6 L 14 8 L 16 8 L 16 6 L 14 6 z M 16 6 L 17 6 L 17 5 L 16 5 L 16 6 z M 16 8 L 16 9 L 17 9 L 17 8 L 16 8 z M 14 8 L 13 8 L 13 9 L 14 9 L 14 8 z M 9 11 L 9 13 L 13 13 L 13 11 L 9 11 z M 13 13 L 13 15 L 15 15 L 15 13 L 13 13 z M 15 15 L 15 17 L 17 17 L 17 15 L 15 15 z M 9 13 L 7 13 L 7 15 L 9 15 L 9 13 z M 7 15 L 5 15 L 5 17 L 7 17 L 7 15 z "
       transform="translate(0,1030.3622)"
       id="rect4129" />
  </g>
</svg>
